X: 1904
T: Uşşak Aranağme (Curcuna)
C: ?
O: Turkey
F: http://compmusic.upf.edu/node/140
N: ussak--aranagme--curcuna--1--
N: makam= ussak
N: form= aranagme
N: usul= curcuna = 10/8
M: 10/8
L: 1/16
K: C _2/4B   
Q: 1/4=180
%%MIDI tuningsystem comma53
d8-d2d2 e2c4B2  | A2B2 c2{d}c2 B2c2 d2B2 A2G2  | \
w:  ARANAĞME  |   | 
^F2G2 A2B2 c2d2 e2f2 e2d2  | 
w:   | 
a2g2 f2e2 d2e2 c2d4z2  | d8-d2d2 e2c4B2  | \
w:   |  ARANAĞME  | 
A2B2 c2{d}c2 B2c2 d2B2 A2G2  | 
w:   | 
^F2G2 A2B2 c2d2 e2c2 B2A2  | A2B2 d2c2 B2B2 A2A4z2  | |


